dist/icons/svgs/arrow-right-outline.svg

<svg xmlns="http://www.w3.org/2000/svg" width="24" height="24" fill="currentcolor" class="icon-arrow-right-outline" viewBox="0 0 24 24">
  <path d="M20.4375 12.7031L13.5625 19.2656C13.1719 19.6172 12.5859 19.6172 12.2344 19.2266C11.8828 18.8359 11.8828 18.25 12.2734 17.8984L17.4688 12.9375H4.1875C3.64062 12.9375 3.25 12.5469 3.25 12C3.25 11.4922 3.64062 11.0625 4.1875 11.0625H17.4688L12.2734 6.14063C11.8828 5.78907 11.8828 5.16407 12.2344 4.81251C12.5859 4.42188 13.2109 4.42188 13.5625 4.77345L20.4375 11.3359C20.6328 11.5313 20.75 11.7656 20.75 12C20.75 12.2734 20.6328 12.5078 20.4375 12.7031Z"/>
</svg>

<svg xmlns="http://www.w3.org/2000/svg" width="24" height="24" fill="currentColor" class="icon-arrow-right-outline" viewBox="0 0 24 24">
  <path d="m20.438 12.703-6.875 6.563c-.391.351-.977.351-1.329-.04-.351-.39-.351-.976.04-1.328l5.195-4.96H4.187c-.546 0-.937-.391-.937-.938 0-.508.39-.937.938-.937h13.28L12.274 6.14a.93.93 0 0 1-.039-1.328.93.93 0 0 1 1.329-.04l6.874 6.563c.196.195.313.43.313.664a.98.98 0 0 1-.312.703"/>
</svg>
